X:1
T:Loch Builg
T:Loch Builg
T:Alexander Walker
C:Alexander Walker
L:1/8
M:2/2
K:Eb
V:1 treble 
V:1
 c | A2 G/F/E CEB,E | CEB,E GFFc | B2 (G/F/E) CEB,G | AcBd eEE :| d | eBgB bBgB | dBfB gBfB | %8
 eBgB bBfG | AcAd eEEd | eBgB bBgB | dBfB gBfB | egdf ce BG | AcBd eEE || %14

